packages/js/images/icon-trolley.svg

<svg width="14" height="14" viewBox="0 0 14 14" fill="none" xmlns="http://www.w3.org/2000/svg">
	<path d="M12.6126 0.444854C12.0398 0.444854 11.5406 0.828851 11.3934 1.38245L11.2366 1.96485C7.57577 1.89765 3.92456 2.32325 0.378964 3.22565C0.366164 3.22565 0.356564 3.23205 0.343764 3.23525C0.0781639 3.32485 -0.0626329 3.60965 0.0269671 3.87525C0.583767 5.53605 1.24937 7.16165 2.01737 8.73605C2.10057 8.90885 2.27657 9.01765 2.47177 9.01765H10.0142C10.6542 9.01765 11.227 9.42085 11.4414 10.0257H1.44137C1.16297 10.0257 0.935766 10.2529 0.935766 10.5313C0.935766 10.8097 1.16297 11.0369 1.44137 11.0369H12.0334C12.3118 11.0369 12.539 10.8097 12.539 10.5313C12.539 9.38245 11.7646 8.38085 10.651 8.08965L12.3726 1.63845C12.4014 1.52965 12.5006 1.45285 12.6158 1.45285H13.547C13.8254 1.45285 14.0526 1.22565 14.0526 0.947251C14.0526 0.668851 13.8254 0.44165 13.547 0.44165H12.6158L12.6126 0.444854ZM11.5278 13.5585C10.971 13.5585 10.5198 13.1073 10.5198 12.5505C10.5198 11.9937 10.971 11.5425 11.5278 11.5425C12.0846 11.5425 12.5358 11.9937 12.5358 12.5505C12.5358 13.1073 12.0846 13.5585 11.5278 13.5585ZM2.95497 13.5585C2.39817 13.5585 1.94697 13.1073 1.94697 12.5505C1.94697 11.9937 2.39817 11.5425 2.95497 11.5425C3.51177 11.5425 3.96296 11.9937 3.96296 12.5505C3.96296 13.1073 3.51177 13.5585 2.95497 13.5585Z" fill="#0075B3"/>
</svg>

<svg width="14" height="14" fill="none" xmlns="http://www.w3.org/2000/svg"><path d="M12.613.445a1.26 1.26 0 0 0-1.22.937l-.156.583A40.97 40.97 0 0 0 .379 3.225c-.013 0-.022.007-.035.01a.503.503 0 0 0-.317.64 40.344 40.344 0 0 0 1.99 4.861c.084.173.26.282.455.282h7.542c.64 0 1.213.403 1.427 1.008h-10a.507.507 0 0 0 0 1.01h10.592a.507.507 0 0 0 .506-.505c0-1.149-.774-2.15-1.888-2.441l1.722-6.452a.25.25 0 0 1 .243-.185h.931a.507.507 0 0 0 0-1.011h-.931l-.003.003zm-1.085 13.114a1.008 1.008 0 1 1 0-2.016 1.008 1.008 0 0 1 0 2.016zm-8.573 0a1.008 1.008 0 1 1 0-2.016 1.008 1.008 0 0 1 0 2.016z" fill="#0075B3"/></svg>
